dist/img/svg/twitter.svg

<svg width="17" height="14" viewBox="0 0 17 14" fill="none" xmlns="http://www.w3.org/2000/svg">
<path id="&#239;&#137;&#131;" d="M16.5942 2.11719C16.1724 2.77344 15.6099 3.35937 14.9067 3.875V4.29688C14.9067 6.75781 14.0161 8.99609 12.2349 11.0117C10.4771 13.0039 8.1333 14 5.20361 14C3.32861 14 1.59424 13.4844 0.000488281 12.4531C0.375488 12.5 0.64502 12.5234 0.809082 12.5234C2.37939 12.5234 3.78564 12.0312 5.02783 11.0469C4.30127 11.0234 3.64502 10.8008 3.05908 10.3789C2.47314 9.93359 2.07471 9.37109 1.86377 8.69141C2.14502 8.73828 2.35596 8.76172 2.49658 8.76172C2.73096 8.76172 3.03564 8.71484 3.41064 8.62109C2.63721 8.45703 1.98096 8.07031 1.44189 7.46094C0.92627 6.82812 0.668457 6.10156 0.668457 5.28125V5.24609C1.18408 5.52734 1.69971 5.66797 2.21533 5.66797C1.20752 5.01172 0.703613 4.0625 0.703613 2.82031C0.703613 2.23437 0.855957 1.67187 1.16064 1.13281C2.96533 3.35937 5.29736 4.54297 8.15674 4.68359C8.10986 4.51953 8.08643 4.26172 8.08643 3.91016C8.08643 2.94922 8.41455 2.14063 9.0708 1.48438C9.72705 0.828125 10.5356 0.5 11.4966 0.5C12.4575 0.5 13.2778 0.863281 13.9575 1.58984C14.6606 1.47266 15.3872 1.19141 16.1372 0.746094C15.9028 1.56641 15.3989 2.19922 14.6255 2.64453C15.3521 2.57422 16.0083 2.39844 16.5942 2.11719Z"/>
</svg>

<svg width="17" height="14" fill="none" xmlns="http://www.w3.org/2000/svg"><path d="M16.594 2.117c-.422.656-.984 1.242-1.687 1.758v.422c0 2.46-.89 4.7-2.672 6.715C10.477 13.004 8.133 14 5.204 14c-1.875 0-3.61-.516-5.204-1.547.375.047.645.07.81.07 1.57 0 2.976-.492 4.218-1.476a3.49 3.49 0 01-1.969-.668A3.311 3.311 0 011.864 8.69c.281.047.492.07.633.07.234 0 .539-.046.914-.14a3.557 3.557 0 01-1.97-1.16 3.353 3.353 0 01-.773-2.18v-.035c.516.281 1.032.422 1.547.422C1.208 5.012.704 4.062.704 2.82c0-.586.152-1.148.457-1.687 1.804 2.226 4.136 3.41 6.996 3.55-.047-.163-.07-.421-.07-.773 0-.96.328-1.77.984-2.426C9.727.828 10.536.5 11.497.5c.96 0 1.78.363 2.46 1.09.704-.117 1.43-.399 2.18-.844-.234.82-.738 1.453-1.511 1.899a5.805 5.805 0 001.968-.528z"/></svg>
